_includes/icons/ios-security-lock.svg

<svg fill="#666" height="50" viewBox="0 0 50 50" width="50" xmlns="http://www.w3.org/2000/svg"><path d="m25 0c-2.453125 0-4.523437 1.367188-7.59375 2.945313-3.074219 1.582031-7.1875 3.488281-13.621094 4.898437l-.785156.175781v.800782c0 15.324218 5.355469 25.550781 10.734375 31.898437 5.382813 6.351563 10.84375 8.882813 10.84375 8.882813l.441406.203125.433594-.21875s21.546875-11.105469 21.546875-40.765625v-.800782l-.785156-.175781c-6.433594-1.410156-10.546875-3.316406-13.621094-4.898437-3.070312-1.578125-5.140625-2.945313-7.59375-2.945313zm0 2c1.644531 0 3.542969 1.109375 6.683594 2.726563 2.976562 1.53125 7.179687 3.386718 13.253906 4.820312-.355469 27.132813-18.660156 37.292969-19.953125 37.972656-.625-.300781-4.953125-2.464843-9.71875-8.09375-5.03125-5.933593-10.023437-15.464843-10.203125-29.878906 6.074219-1.433594 10.277344-3.289062 13.253906-4.820312 3.140625-1.617188 5.039063-2.726563 6.683594-2.726563zm0 14c-2.210937 0-4 1.789063-4 4 0 1.347656.683594 2.605469 1.8125 3.34375l-1.8125 8.15625h8l-1.8125-8.15625c1.128906-.734375 1.8125-1.996094 1.8125-3.34375 0-2.210937-1.789062-4-4-4z"/></svg>

<svg xmlns="http://www.w3.org/2000/svg" viewBox="0 0 50 50" width="50" height="50" fill="#666"><path d="M 25 0 C 22.546875 0 20.476563 1.367188 17.40625 2.945313 C 14.332031 4.527344 10.21875 6.433594 3.785156 7.84375 L 3 8.019531 L 3 8.820313 C 3 24.144531 8.355469 34.371094 13.734375 40.71875 C 19.117188 47.070313 24.578125 49.601563 24.578125 49.601563 L 25.019531 49.804688 L 25.453125 49.585938 C 25.453125 49.585938 47 38.480469 47 8.820313 L 47 8.019531 L 46.214844 7.84375 C 39.78125 6.433594 35.667969 4.527344 32.59375 2.945313 C 29.523438 1.367188 27.453125 0 25 0 Z M 25 2 C 26.644531 2 28.542969 3.109375 31.683594 4.726563 C 34.660156 6.257813 38.863281 8.113281 44.9375 9.546875 C 44.582031 36.679688 26.277344 46.839844 24.984375 47.519531 C 24.359375 47.21875 20.03125 45.054688 15.265625 39.425781 C 10.234375 33.492188 5.242188 23.960938 5.0625 9.546875 C 11.136719 8.113281 15.339844 6.257813 18.316406 4.726563 C 21.457031 3.109375 23.355469 2 25 2 Z M 25 16 C 22.789063 16 21 17.789063 21 20 C 21 21.347656 21.683594 22.605469 22.8125 23.34375 L 21 31.5 L 29 31.5 L 27.1875 23.34375 C 28.316406 22.609375 29 21.347656 29 20 C 29 17.789063 27.210938 16 25 16 Z"/></svg>
